packages/symbols/svgs/outline/arrow-down-to-bracket-outline.svg

<svg width="24" height="24" viewBox="0 0 24 24" fill="none" xmlns="http://www.w3.org/2000/svg">
<path fill-rule="evenodd" clip-rule="evenodd" d="M2 15C2.55228 15 3 15.4477 3 16V21H21V16C21 15.4477 21.4477 15 22 15C22.5523 15 23 15.4477 23 16V22C23 22.5523 22.5523 23 22 23H2C1.44772 23 1 22.5523 1 22V16C1 15.4477 1.44772 15 2 15Z" fill="black"/>
<path fill-rule="evenodd" clip-rule="evenodd" d="M13 1C13 0.447715 12.5523 0 12 0C11.4477 0 11 0.447715 11 1V13.5858L6.70711 9.29289C6.31658 8.90237 5.68342 8.90237 5.29289 9.29289C4.90237 9.68342 4.90237 10.3166 5.29289 10.7071L11.2929 16.7071C11.6834 17.0976 12.3166 17.0976 12.7071 16.7071L18.7071 10.7071C19.0976 10.3166 19.0976 9.68342 18.7071 9.29289C18.3166 8.90237 17.6834 8.90237 17.2929 9.29289L13 13.5858V1Z" fill="black"/>
</svg>

<svg width="24" height="24" viewBox="0 0 24 24" xmlns="http://www.w3.org/2000/svg"><path fill-rule="evenodd" clip-rule="evenodd" d="M2 15a1 1 0 0 1 1 1v5h18v-5a1 1 0 1 1 2 0v6a1 1 0 0 1-1 1H2a1 1 0 0 1-1-1v-6a1 1 0 0 1 1-1Z"/><path fill-rule="evenodd" clip-rule="evenodd" d="M13 1a1 1 0 1 0-2 0v12.586L6.707 9.293a1 1 0 0 0-1.414 1.414l6 6a1 1 0 0 0 1.414 0l6-6a1 1 0 0 0-1.414-1.414L13 13.586V1Z"/></svg>
